icons/cursor-sqaure-alt-dashed.svg

<svg xmlns="http://www.w3.org/2000/svg" viewBox="0 0 24 24" fill="currentColor">
  <path d="M9.6001 8.25c-.30391 0-.63578.10011-.88035.34471-.25115.25116-.38449.65003-.23133 1.04821l1.10594 4.22268.03492.0698c.10688.2138.31964.4836.67732.5858.4114.1175.7816-.0486 1.0238-.2909l.9697-.9696 2.1696 2.1696c.2929.2929.7678.2929 1.0607 0 .2929-.2929.2929-.7678 0-1.0607L13.3608 12.2l1.0696-1.0696c.2423-.2423.4084-.6125.2908-1.0239-.1021-.35767-.3719-.57042-.5857-.67728l-.0698-.03493L9.69669 8.25H9.6001Zm2.178 3.4114 1.0426-1.0426-2.7121-.71033.7103 2.71213.9426-.9426c.0027-.0028.0055-.0056.0082-.0084.0028-.0027.0056-.0055.0084-.0082Z"/>
  <path d="M7 3.75c-.43959 0-.85837.08831-1.24077.24787-.38226.15951-.82146-.02107-.98097-.40333-.15952-.38227.02106-.82147.40333-.98098C5.74279 2.37938 6.35761 2.25 7 2.25h1.25c.41421 0 .75.33579.75.75s-.33579.75-.75.75H7ZM10 3c0-.41421.3358-.75.75-.75h2.5c.4142 0 .75.33579.75.75s-.3358.75-.75.75h-2.5c-.4142 0-.75-.33579-.75-.75Zm5 0c0-.41421.3358-.75.75-.75H17c.6424 0 1.2572.12938 1.8184.36356.3823.15951.5629.59871.4033.98098-.1595.38226-.5987.56284-.9809.40333C17.8584 3.83831 17.4396 3.75 17 3.75h-1.25c-.4142 0-.75-.33579-.75-.75Zm5.4055 1.77826c.3822-.15952.8214.02106.9809.40333.2342.5612.3636 1.17602.3636 1.81841v1.25c0 .41421-.3358.75-.75.75s-.75-.33579-.75-.75V7c0-.43959-.0883-.85837-.2479-1.24077-.1595-.38226.0211-.82146.4034-.98097Zm-16.81096 0c.38226.15951.56284.59871.40333.98097C3.83831 6.14163 3.75 6.56041 3.75 7v1.25c0 .41421-.33579.75-.75.75s-.75-.33579-.75-.75V7c0-.64239.12938-1.25721.36356-1.81841.15951-.38227.59871-.56285.98098-.40333ZM3 10c.41421 0 .75.3358.75.75v2.5c0 .4142-.33579.75-.75.75s-.75-.3358-.75-.75v-2.5c0-.4142.33579-.75.75-.75Zm18 0c.4142 0 .75.3358.75.75v2.5c0 .4142-.3358.75-.75.75s-.75-.3358-.75-.75v-2.5c0-.4142.3358-.75.75-.75ZM3 15c.41421 0 .75.3358.75.75V17c0 .4396.08831.8584.24787 1.2408.15951.3822-.02107.8214-.40333.9809-.38227.1596-.82147-.021-.98098-.4033C2.37938 18.2572 2.25 17.6424 2.25 17v-1.25c0-.4142.33579-.75.75-.75Zm18 0c.4142 0 .75.3358.75.75V17c0 .6402-.1225 1.2552-.3498 1.8185-.1551.3841-.5922.5698-.9763.4147-.3841-.155-.5697-.5921-.4147-.9762.1553-.3846.2408-.809.2408-1.257v-1.25c0-.4142.3358-.75.75-.75ZM4.77826 20.4055c.15951-.3823.59871-.5629.98097-.4034.3824.1596.80118.2479 1.24077.2479h1.25c.41421 0 .75.3358.75.75s-.33579.75-.75.75H7c-.64239 0-1.25721-.1294-1.81841-.3636-.38227-.1595-.56285-.5987-.40333-.9809Zm14.45604.0222c.1546.3843-.0315.8212-.4158.9758-.558.2246-1.171.3465-1.8185.3465h-1.25c-.4142 0-.75-.3358-.75-.75s.3358-.75.75-.75H17c.4576 0 .8804-.0859 1.2585-.238.3843-.1547.8211.0315.9758.4157ZM10 21c0-.4142.3358-.75.75-.75h2.5c.4142 0 .75.3358.75.75s-.3358.75-.75.75h-2.5c-.4142 0-.75-.3358-.75-.75Z"/>
</svg>

<svg width="24" height="24" viewBox="0 0 24 24" fill="none" xmlns="http://www.w3.org/2000/svg">
<path fill-rule="evenodd" clip-rule="evenodd" d="M9.6001 8.25C9.29619 8.25 8.96432 8.35011 8.71975 8.59471C8.4686 8.84587 8.33526 9.24474 8.48842 9.64292L9.59436 13.8656L9.62928 13.9354C9.73616 14.1492 9.94892 14.419 10.3066 14.5212C10.718 14.6387 11.0882 14.4726 11.3304 14.2303L12.3001 13.2607L14.4697 15.4303C14.7626 15.7232 15.2375 15.7232 15.5304 15.4303C15.8233 15.1374 15.8233 14.6625 15.5304 14.3696L13.3608 12.2L14.4304 11.1304C14.6727 10.8881 14.8388 10.5179 14.7212 10.1065C14.6191 9.74883 14.3493 9.53608 14.1355 9.42922L14.0657 9.39429L9.69669 8.25H9.6001ZM11.7781 11.6614L12.8207 10.6188L10.1086 9.90847L10.8189 12.6206L11.7615 11.678C11.7642 11.6752 11.767 11.6724 11.7697 11.6696C11.7725 11.6669 11.7753 11.6641 11.7781 11.6614Z" fill="black"/>
<path fill-rule="evenodd" clip-rule="evenodd" d="M7 3.75C6.56041 3.75 6.14163 3.83831 5.75923 3.99787C5.37697 4.15738 4.93777 3.9768 4.77826 3.59454C4.61874 3.21227 4.79932 2.77307 5.18159 2.61356C5.74279 2.37938 6.35761 2.25 7 2.25H8.25C8.66421 2.25 9 2.58579 9 3C9 3.41421 8.66421 3.75 8.25 3.75H7ZM10 3C10 2.58579 10.3358 2.25 10.75 2.25H13.25C13.6642 2.25 14 2.58579 14 3C14 3.41421 13.6642 3.75 13.25 3.75H10.75C10.3358 3.75 10 3.41421 10 3ZM15 3C15 2.58579 15.3358 2.25 15.75 2.25H17C17.6424 2.25 18.2572 2.37938 18.8184 2.61356C19.2007 2.77307 19.3813 3.21227 19.2217 3.59454C19.0622 3.9768 18.623 4.15738 18.2408 3.99787C17.8584 3.83831 17.4396 3.75 17 3.75H15.75C15.3358 3.75 15 3.41421 15 3ZM20.4055 4.77826C20.7877 4.61874 21.2269 4.79932 21.3864 5.18159C21.6206 5.74279 21.75 6.35761 21.75 7V8.25C21.75 8.66421 21.4142 9 21 9C20.5858 9 20.25 8.66421 20.25 8.25V7C20.25 6.56041 20.1617 6.14163 20.0021 5.75923C19.8426 5.37697 20.0232 4.93777 20.4055 4.77826ZM3.59454 4.77826C3.9768 4.93777 4.15738 5.37697 3.99787 5.75923C3.83831 6.14163 3.75 6.56041 3.75 7V8.25C3.75 8.66421 3.41421 9 3 9C2.58579 9 2.25 8.66421 2.25 8.25V7C2.25 6.35761 2.37938 5.74279 2.61356 5.18159C2.77307 4.79932 3.21227 4.61874 3.59454 4.77826ZM3 10C3.41421 10 3.75 10.3358 3.75 10.75V13.25C3.75 13.6642 3.41421 14 3 14C2.58579 14 2.25 13.6642 2.25 13.25V10.75C2.25 10.3358 2.58579 10 3 10ZM21 10C21.4142 10 21.75 10.3358 21.75 10.75V13.25C21.75 13.6642 21.4142 14 21 14C20.5858 14 20.25 13.6642 20.25 13.25V10.75C20.25 10.3358 20.5858 10 21 10ZM3 15C3.41421 15 3.75 15.3358 3.75 15.75V17C3.75 17.4396 3.83831 17.8584 3.99787 18.2408C4.15738 18.623 3.9768 19.0622 3.59454 19.2217C3.21227 19.3813 2.77307 19.2007 2.61356 18.8184C2.37938 18.2572 2.25 17.6424 2.25 17V15.75C2.25 15.3358 2.58579 15 3 15ZM21 15C21.4142 15 21.75 15.3358 21.75 15.75V17C21.75 17.6402 21.6275 18.2552 21.4002 18.8185C21.2451 19.2026 20.808 19.3883 20.4239 19.2332C20.0398 19.0782 19.8542 18.6411 20.0092 18.257C20.1645 17.8724 20.25 17.448 20.25 17V15.75C20.25 15.3358 20.5858 15 21 15ZM4.77826 20.4055C4.93777 20.0232 5.37697 19.8426 5.75923 20.0021C6.14163 20.1617 6.56041 20.25 7 20.25H8.25C8.66421 20.25 9 20.5858 9 21C9 21.4142 8.66421 21.75 8.25 21.75H7C6.35761 21.75 5.74279 21.6206 5.18159 21.3864C4.79932 21.2269 4.61874 20.7877 4.77826 20.4055ZM19.2343 20.4277C19.3889 20.812 19.2028 21.2489 18.8185 21.4035C18.2605 21.6281 17.6475 21.75 17 21.75H15.75C15.3358 21.75 15 21.4142 15 21C15 20.5858 15.3358 20.25 15.75 20.25H17C17.4576 20.25 17.8804 20.1641 18.2585 20.012C18.6428 19.8573 19.0796 20.0435 19.2343 20.4277ZM10 21C10 20.5858 10.3358 20.25 10.75 20.25H13.25C13.6642 20.25 14 20.5858 14 21C14 21.4142 13.6642 21.75 13.25 21.75H10.75C10.3358 21.75 10 21.4142 10 21Z" fill="black"/>
</svg>
